dist/img/sprites/hStar.svg

<svg width="32" height="32" viewBox="0 0 32 32" fill="none" xmlns="http://www.w3.org/2000/svg">
<g clip-path="url(#clip0_730_5361)">
<path d="M31.8496 12.18C31.5396 11.27 30.8896 10.74 29.9196 10.59C27.4096 10.22 24.8996 9.84004 22.3796 9.49004C21.9496 9.43004 21.6896 9.24004 21.4996 8.86004C20.7496 7.33004 19.9996 5.80004 19.2396 4.27004L18.1696 2.09004C17.7296 1.19004 17.0196 0.730044 15.9996 0.670044C14.9796 0.720044 14.2796 1.18004 13.8396 2.06004C12.7096 4.34004 11.5796 6.63004 10.4596 8.92004C10.2896 9.26004 10.0496 9.44004 9.68964 9.49004C7.56964 9.79004 5.44964 10.1 3.32964 10.41L2.07964 10.59C1.32964 10.7 0.74964 11.08 0.35964 11.72C-0.23036 12.67 -0.0703603 13.86 0.74964 14.66C2.55964 16.43 4.35964 18.2 6.18964 19.96C6.51964 20.27 6.62964 20.61 6.54964 21.05C6.14964 23.3 5.75964 25.54 5.38964 27.79L5.35964 27.94C5.27964 28.4 5.19964 28.88 5.25964 29.31C5.37964 30.08 5.82964 30.72 6.48964 31.06C7.18964 31.42 8.00964 31.4 8.74964 31.02C11.0096 29.84 13.2696 28.65 15.5196 27.46C15.6896 27.37 15.8596 27.32 16.0196 27.32C16.1796 27.32 16.3296 27.37 16.4896 27.46C16.7296 27.6 16.9796 27.73 17.2196 27.85L19.0996 28.83C20.4796 29.56 21.8696 30.29 23.2596 31.01C24.1596 31.48 25.0196 31.43 25.8096 30.85C26.5996 30.27 26.9196 29.47 26.7496 28.47L26.5696 27.41C26.2096 25.31 25.8496 23.2 25.4796 21.1C25.3896 20.6 25.5096 20.24 25.8796 19.89C27.7996 18.05 29.5696 16.33 31.2896 14.62C31.9896 13.92 32.1896 13.1 31.8696 12.17L31.8496 12.18ZM29.9196 13.52L28.9796 14.45C27.6096 15.81 26.1896 17.21 24.7496 18.55C23.8396 19.4 23.5296 20.32 23.7596 21.53C24.1396 23.5 24.4696 25.51 24.7896 27.46L24.9896 28.66C25.0196 28.86 24.9896 29.25 24.7696 29.43C24.5496 29.6 24.1596 29.53 23.9696 29.43C21.9796 28.4 19.6396 27.18 17.3196 25.94C16.4296 25.46 15.5996 25.46 14.7196 25.92C12.9696 26.85 11.2196 27.77 9.45964 28.69L8.02964 29.44C7.85964 29.53 7.69964 29.57 7.54964 29.57C7.43964 29.57 7.32964 29.54 7.23964 29.49C7.12964 29.43 6.94964 29.26 6.94964 28.9V28.86L7.63964 24.86C7.84964 23.63 8.06964 22.4 8.27964 21.16C8.42964 20.25 8.17964 19.49 7.50964 18.83C6.31964 17.68 5.12964 16.52 3.94964 15.36L2.57964 14.02C2.52964 13.97 2.46964 13.91 2.40964 13.86C2.26964 13.73 2.12964 13.6 2.00964 13.45C1.95964 13.39 1.70964 13.05 1.80964 12.76C1.87964 12.53 2.16964 12.35 2.39964 12.31C3.19964 12.18 3.98964 12.07 4.78964 11.95L6.85964 11.65C7.91964 11.5 8.97964 11.34 10.0396 11.19C10.9396 11.06 11.5796 10.58 11.9996 9.72004C12.6996 8.29004 13.3996 6.87004 14.0996 5.44004L15.0896 3.43004C15.1696 3.25004 15.2596 3.07004 15.3696 2.90004C15.4796 2.73004 15.7096 2.44004 15.9896 2.46004C16.2496 2.48004 16.5096 2.71004 16.6196 2.93004C17.3196 4.32004 18.0096 5.72004 18.6996 7.11004L19.5096 8.74004C19.6796 9.09004 19.8496 9.43004 20.0196 9.78004C20.4196 10.6 21.0896 11.07 22.0496 11.21C24.5396 11.56 27.0296 11.92 29.5196 12.3C29.7396 12.33 30.0896 12.5 30.1796 12.76C30.2696 13.02 30.0796 13.36 29.9196 13.52Z" fill="#4B8125"/>
</g>
<defs>
<clipPath id="clip0_730_5361">
<rect width="32" height="32" fill="white"/>
</clipPath>
</defs>
</svg>

<svg width="32" height="32" viewBox="0 0 32 32" fill="none" xmlns="http://www.w3.org/2000/svg"><g clip-path="url(#clip0_730_5361)"><path d="M31.85 12.18c-.31-.91-.96-1.44-1.93-1.59-2.51-.37-5.02-.75-7.54-1.1-.43-.06-.69-.25-.88-.63-.75-1.53-1.5-3.06-2.26-4.59l-1.07-2.18C17.73 1.19 17.02.73 16 .67c-1.02.05-1.72.51-2.16 1.39-1.13 2.28-2.26 4.57-3.38 6.86-.17.34-.41.52-.77.57-2.12.3-4.24.61-6.36.92l-1.25.18c-.75.11-1.33.49-1.72 1.13-.59.95-.43 2.14.39 2.94 1.81 1.77 3.61 3.54 5.44 5.3.33.31.44.65.36 1.09-.4 2.25-.79 4.49-1.16 6.74l-.03.15c-.08.46-.16.94-.1 1.37.12.77.57 1.41 1.23 1.75.7.36 1.52.34 2.26-.04 2.26-1.18 4.52-2.37 6.77-3.56.17-.09.34-.14.5-.14.16 0 .31.05.47.14.24.14.49.27.73.39l1.88.98c1.38.73 2.77 1.46 4.16 2.18.9.47 1.76.42 2.55-.16.79-.58 1.11-1.38.94-2.38l-.18-1.06c-.36-2.1-.72-4.21-1.09-6.31-.09-.5.03-.86.4-1.21 1.92-1.84 3.69-3.56 5.41-5.27.7-.7.9-1.52.58-2.45l-.02.01zm-1.93 1.34l-.94.93c-1.37 1.36-2.79 2.76-4.23 4.1-.91.85-1.22 1.77-.99 2.98.38 1.97.71 3.98 1.03 5.93l.2 1.2c.03.2 0 .59-.22.77-.22.17-.61.1-.8 0a575.92 575.92 0 01-6.65-3.49c-.89-.48-1.72-.48-2.6-.02-1.75.93-3.5 1.85-5.26 2.77l-1.43.75c-.17.09-.33.13-.48.13a.65.65 0 01-.31-.08c-.11-.06-.29-.23-.29-.59v-.04l.69-4c.21-1.23.43-2.46.64-3.7.15-.91-.1-1.67-.77-2.33-1.19-1.15-2.38-2.31-3.56-3.47l-1.37-1.34c-.05-.05-.11-.11-.17-.16-.14-.13-.28-.26-.4-.41-.05-.06-.3-.4-.2-.69.07-.23.36-.41.59-.45.8-.13 1.59-.24 2.39-.36l2.07-.3c1.06-.15 2.12-.31 3.18-.46.9-.13 1.54-.61 1.96-1.47.7-1.43 1.4-2.85 2.1-4.28l.99-2.01c.08-.18.17-.36.28-.53.11-.17.34-.46.62-.44.26.02.52.25.63.47.7 1.39 1.39 2.79 2.08 4.18l.81 1.63c.17.35.34.69.51 1.04.4.82 1.07 1.29 2.03 1.43 2.49.35 4.98.71 7.47 1.09.22.03.57.2.66.46.09.26-.1.6-.26.76z" fill="#4B8125"/></g><defs><clipPath id="clip0_730_5361"><path fill="#fff" d="M0 0h32v32H0z"/></clipPath></defs></svg>
